Newaita/actions/32/debug-execute-from-cursor.svg

<svg height="32" viewBox="0 0 32 32" width="32" xmlns="http://www.w3.org/2000/svg"><g fill="#424242"><path d="m24.476562 14.804688v2.644531h-7.921874c-.367188 0-.660157-.292969-.660157-.660157v-1.324218c0-.367188.292969-.660156.660157-.660156zm0 0"/><path d="m22.492188 20.757812v-9.261718l6.613281 4.628906zm0 0"/><path d="m3.308594 2.894531h6.613281c.367187 0 .664063.296875.664063.664063 0 .363281-.296876.660156-.664063.660156h-6.613281c-.367188 0-.664063-.296875-.664063-.660156 0-.367188.296875-.664063.664063-.664063zm0 0"/><path d="m6.613281 2.894531c.734375 0 1.324219.59375 1.324219 1.324219v23.816406c0 .730469-.589844 1.320313-1.324219 1.320313-.730469 0-1.320312-.589844-1.320312-1.320313v-23.816406c0-.730469.589843-1.324219 1.320312-1.324219zm0 0"/><path d="m3.308594 28.035156h6.613281c.367187 0 .664063.296875.664063.660156 0 .367188-.296876.660157-.664063.660157h-6.613281c-.367188 0-.664063-.292969-.664063-.660157 0-.363281.296875-.660156.664063-.660156zm0 0"/><path d="m11.246094 11.496094h1.324218c.363282 0 .660157.296875.660157.660156v7.9375c0 .367188-.296875.664062-.660157.664062h-1.324218c-.367188 0-.660156-.296874-.660156-.664062v-7.9375c0-.363281.292968-.660156.660156-.660156zm0 0"/></g></svg>

<?xml version="1.0" encoding="UTF-8"?>
<svg xmlns="http://www.w3.org/2000/svg" xmlns:xlink="http://www.w3.org/1999/xlink" width="32px" height="32px" viewBox="0 0 32 32" version="1.1">
<g id="surface1">
<path style=" stroke:none;fill-rule:nonzero;fill:rgb(25.882354%,25.882354%,25.882354%);fill-opacity:1;" d="M 24.476562 14.804688 L 24.476562 17.449219 L 16.554688 17.449219 C 16.1875 17.449219 15.894531 17.15625 15.894531 16.789062 L 15.894531 15.464844 C 15.894531 15.097656 16.1875 14.804688 16.554688 14.804688 Z M 24.476562 14.804688 "/>
<path style=" stroke:none;fill-rule:nonzero;fill:rgb(25.882354%,25.882354%,25.882354%);fill-opacity:1;" d="M 22.492188 20.757812 L 22.492188 11.496094 L 29.105469 16.125 Z M 22.492188 20.757812 "/>
<path style=" stroke:none;fill-rule:nonzero;fill:rgb(25.882354%,25.882354%,25.882354%);fill-opacity:1;" d="M 3.308594 2.894531 L 9.921875 2.894531 C 10.289062 2.894531 10.585938 3.191406 10.585938 3.558594 C 10.585938 3.921875 10.289062 4.21875 9.921875 4.21875 L 3.308594 4.21875 C 2.941406 4.21875 2.644531 3.921875 2.644531 3.558594 C 2.644531 3.191406 2.941406 2.894531 3.308594 2.894531 Z M 3.308594 2.894531 "/>
<path style=" stroke:none;fill-rule:nonzero;fill:rgb(25.882354%,25.882354%,25.882354%);fill-opacity:1;" d="M 6.613281 2.894531 C 7.347656 2.894531 7.9375 3.488281 7.9375 4.21875 L 7.9375 28.035156 C 7.9375 28.765625 7.347656 29.355469 6.613281 29.355469 C 5.882812 29.355469 5.292969 28.765625 5.292969 28.035156 L 5.292969 4.21875 C 5.292969 3.488281 5.882812 2.894531 6.613281 2.894531 Z M 6.613281 2.894531 "/>
<path style=" stroke:none;fill-rule:nonzero;fill:rgb(25.882354%,25.882354%,25.882354%);fill-opacity:1;" d="M 3.308594 28.035156 L 9.921875 28.035156 C 10.289062 28.035156 10.585938 28.332031 10.585938 28.695312 C 10.585938 29.0625 10.289062 29.355469 9.921875 29.355469 L 3.308594 29.355469 C 2.941406 29.355469 2.644531 29.0625 2.644531 28.695312 C 2.644531 28.332031 2.941406 28.035156 3.308594 28.035156 Z M 3.308594 28.035156 "/>
<path style=" stroke:none;fill-rule:nonzero;fill:rgb(25.882354%,25.882354%,25.882354%);fill-opacity:1;" d="M 11.246094 11.496094 L 12.570312 11.496094 C 12.933594 11.496094 13.230469 11.792969 13.230469 12.15625 L 13.230469 20.09375 C 13.230469 20.460938 12.933594 20.757812 12.570312 20.757812 L 11.246094 20.757812 C 10.878906 20.757812 10.585938 20.460938 10.585938 20.09375 L 10.585938 12.15625 C 10.585938 11.792969 10.878906 11.496094 11.246094 11.496094 Z M 11.246094 11.496094 "/>
</g>
</svg>
